X: 1
T: Allt-y-Caethiwed
M: 4/4
L: 1/8
R: hornpipe
K: Gmaj
|:dc|BGGG DGGG|BGdB G3B|BAAA FGAB|ceed e2dc|
BGGG DGGG|BGdB G2cd|ecdB cABG|FADF G2:|
|:dc|Bcdc BGdc|BcdB G2ed|cdec cAed|cdec A2dc|
Bcdc BGdc|BcdB G2cd|ecdB cABG|FADF G2:||
